solution/ui/src/images/total_costs.svg

<svg width="120" height="53" viewBox="0 0 120 53" fill="none" xmlns="http://www.w3.org/2000/svg">
<rect x="0.5" y="0.5" width="119" height="52" rx="7.5" stroke="#C5C5C5"/>
<path d="M25.068 22V11.452H21.504V10.192H30.144V11.452H26.58V22H25.068ZM33.9331 22.216C33.3931 22.216 32.8771 22.114 32.3851 21.91C31.9051 21.706 31.4791 21.412 31.1071 21.028C30.7351 20.632 30.4351 20.152 30.2071 19.588C29.9911 19.012 29.8831 18.364 29.8831 17.644C29.8831 16.912 29.9911 16.264 30.2071 15.7C30.4351 15.124 30.7351 14.638 31.1071 14.242C31.4791 13.846 31.9051 13.546 32.3851 13.342C32.8771 13.138 33.3931 13.036 33.9331 13.036C34.4731 13.036 34.9831 13.138 35.4631 13.342C35.9551 13.546 36.3871 13.846 36.7591 14.242C37.1311 14.638 37.4251 15.124 37.6411 15.7C37.8691 16.264 37.9831 16.912 37.9831 17.644C37.9831 18.364 37.8691 19.012 37.6411 19.588C37.4251 20.152 37.1311 20.632 36.7591 21.028C36.3871 21.412 35.9551 21.706 35.4631 21.91C34.9831 22.114 34.4731 22.216 33.9331 22.216ZM33.9331 20.992C34.3051 20.992 34.6471 20.914 34.9591 20.758C35.2711 20.59 35.5351 20.362 35.7511 20.074C35.9791 19.774 36.1531 19.42 36.2731 19.012C36.3931 18.604 36.4531 18.148 36.4531 17.644C36.4531 17.14 36.3931 16.684 36.2731 16.276C36.1531 15.856 35.9791 15.496 35.7511 15.196C35.5351 14.896 35.2711 14.668 34.9591 14.512C34.6471 14.344 34.3051 14.26 33.9331 14.26C33.5611 14.26 33.2191 14.344 32.9071 14.512C32.5951 14.668 32.3251 14.896 32.0971 15.196C31.8811 15.496 31.7131 15.856 31.5931 16.276C31.4731 16.684 31.4131 17.14 31.4131 17.644C31.4131 18.148 31.4731 18.604 31.5931 19.012C31.7131 19.42 31.8811 19.774 32.0971 20.074C32.3251 20.362 32.5951 20.59 32.9071 20.758C33.2191 20.914 33.5611 20.992 33.9331 20.992ZM42.3421 22.216C41.8741 22.216 41.4781 22.144 41.1541 22C40.8421 21.856 40.5841 21.658 40.3801 21.406C40.1881 21.154 40.0501 20.848 39.9661 20.488C39.8821 20.128 39.8401 19.732 39.8401 19.3V14.458H38.5441V13.342L39.9121 13.252L40.0921 10.804H41.3341V13.252H43.6921V14.458H41.3341V19.318C41.3341 19.858 41.4301 20.278 41.6221 20.578C41.8261 20.866 42.1801 21.01 42.6841 21.01C42.8401 21.01 43.0081 20.986 43.1881 20.938C43.3681 20.89 43.5301 20.836 43.6741 20.776L43.9621 21.892C43.7221 21.976 43.4581 22.048 43.1701 22.108C42.8941 22.18 42.6181 22.216 42.3421 22.216ZM46.8994 22.216C46.1674 22.216 45.5554 22 45.0634 21.568C44.5834 21.136 44.3434 20.524 44.3434 19.732C44.3434 18.772 44.7694 18.04 45.6214 17.536C46.4734 17.02 47.8354 16.66 49.7074 16.456C49.7074 16.18 49.6774 15.91 49.6174 15.646C49.5694 15.382 49.4794 15.148 49.3474 14.944C49.2154 14.74 49.0294 14.578 48.7894 14.458C48.5614 14.326 48.2674 14.26 47.9074 14.26C47.4034 14.26 46.9294 14.356 46.4854 14.548C46.0414 14.74 45.6454 14.956 45.2974 15.196L44.7214 14.17C45.1294 13.906 45.6274 13.654 46.2154 13.414C46.8034 13.162 47.4514 13.036 48.1594 13.036C49.2274 13.036 50.0014 13.366 50.4814 14.026C50.9614 14.674 51.2014 15.544 51.2014 16.636V22H49.9774L49.8514 20.956H49.7974C49.3774 21.304 48.9274 21.604 48.4474 21.856C47.9674 22.096 47.4514 22.216 46.8994 22.216ZM47.3314 21.028C47.7514 21.028 48.1474 20.932 48.5194 20.74C48.8914 20.536 49.2874 20.242 49.7074 19.858V17.428C48.9754 17.524 48.3574 17.638 47.8534 17.77C47.3614 17.902 46.9594 18.058 46.6474 18.238C46.3474 18.418 46.1254 18.628 45.9814 18.868C45.8494 19.096 45.7834 19.348 45.7834 19.624C45.7834 20.128 45.9334 20.488 46.2334 20.704C46.5334 20.92 46.8994 21.028 47.3314 21.028ZM55.1197 22.216C54.5557 22.216 54.1537 22.048 53.9137 21.712C53.6737 21.376 53.5537 20.884 53.5537 20.236V9.184H55.0297V20.344C55.0297 20.584 55.0717 20.752 55.1557 20.848C55.2397 20.944 55.3357 20.992 55.4437 20.992C55.4917 20.992 55.5337 20.992 55.5697 20.992C55.6177 20.992 55.6837 20.98 55.7677 20.956L55.9657 22.072C55.8697 22.12 55.7557 22.156 55.6237 22.18C55.4917 22.204 55.3237 22.216 55.1197 22.216ZM65.5531 22.216C64.8091 22.216 64.1251 22.078 63.5011 21.802C62.8771 21.526 62.3311 21.13 61.8631 20.614C61.4071 20.086 61.0471 19.444 60.7831 18.688C60.5311 17.92 60.4051 17.056 60.4051 16.096C60.4051 15.148 60.5371 14.296 60.8011 13.54C61.0651 12.784 61.4311 12.142 61.8991 11.614C62.3671 11.086 62.9191 10.684 63.5551 10.408C64.1911 10.12 64.8871 9.976 65.6431 9.976C66.3631 9.976 66.9931 10.126 67.5331 10.426C68.0851 10.714 68.5351 11.05 68.8831 11.434L68.0731 12.406C67.7611 12.07 67.4071 11.8 67.0111 11.596C66.6151 11.392 66.1651 11.29 65.6611 11.29C65.0971 11.29 64.5871 11.404 64.1311 11.632C63.6751 11.848 63.2851 12.166 62.9611 12.586C62.6371 12.994 62.3851 13.492 62.2051 14.08C62.0371 14.668 61.9531 15.328 61.9531 16.06C61.9531 16.804 62.0371 17.476 62.2051 18.076C62.3851 18.664 62.6311 19.168 62.9431 19.588C63.2551 20.008 63.6331 20.332 64.0771 20.56C64.5331 20.788 65.0431 20.902 65.6071 20.902C66.1831 20.902 66.6871 20.788 67.1191 20.56C67.5511 20.32 67.9591 19.99 68.3431 19.57L69.1711 20.506C68.7031 21.046 68.1751 21.466 67.5871 21.766C66.9991 22.066 66.3211 22.216 65.5531 22.216ZM74.2303 22.216C73.6903 22.216 73.1743 22.114 72.6823 21.91C72.2023 21.706 71.7763 21.412 71.4043 21.028C71.0323 20.632 70.7323 20.152 70.5043 19.588C70.2883 19.012 70.1803 18.364 70.1803 17.644C70.1803 16.912 70.2883 16.264 70.5043 15.7C70.7323 15.124 71.0323 14.638 71.4043 14.242C71.7763 13.846 72.2023 13.546 72.6823 13.342C73.1743 13.138 73.6903 13.036 74.2303 13.036C74.7703 13.036 75.2803 13.138 75.7603 13.342C76.2523 13.546 76.6843 13.846 77.0563 14.242C77.4283 14.638 77.7223 15.124 77.9383 15.7C78.1663 16.264 78.2803 16.912 78.2803 17.644C78.2803 18.364 78.1663 19.012 77.9383 19.588C77.7223 20.152 77.4283 20.632 77.0563 21.028C76.6843 21.412 76.2523 21.706 75.7603 21.91C75.2803 22.114 74.7703 22.216 74.2303 22.216ZM74.2303 20.992C74.6023 20.992 74.9443 20.914 75.2563 20.758C75.5683 20.59 75.8323 20.362 76.0483 20.074C76.2763 19.774 76.4503 19.42 76.5703 19.012C76.6903 18.604 76.7503 18.148 76.7503 17.644C76.7503 17.14 76.6903 16.684 76.5703 16.276C76.4503 15.856 76.2763 15.496 76.0483 15.196C75.8323 14.896 75.5683 14.668 75.2563 14.512C74.9443 14.344 74.6023 14.26 74.2303 14.26C73.8583 14.26 73.5163 14.344 73.2043 14.512C72.8923 14.668 72.6223 14.896 72.3943 15.196C72.1783 15.496 72.0103 15.856 71.8903 16.276C71.7703 16.684 71.7103 17.14 71.7103 17.644C71.7103 18.148 71.7703 18.604 71.8903 19.012C72.0103 19.42 72.1783 19.774 72.3943 20.074C72.6223 20.362 72.8923 20.59 73.2043 20.758C73.5163 20.914 73.8583 20.992 74.2303 20.992ZM82.4702 22.216C81.8462 22.216 81.2522 22.102 80.6882 21.874C80.1242 21.646 79.6322 21.358 79.2122 21.01L79.9502 20.02C80.3342 20.332 80.7242 20.584 81.1202 20.776C81.5282 20.968 81.9962 21.064 82.5242 21.064C83.1002 21.064 83.5322 20.932 83.8202 20.668C84.1082 20.404 84.2522 20.08 84.2522 19.696C84.2522 19.468 84.1922 19.27 84.0722 19.102C83.9522 18.934 83.7962 18.79 83.6042 18.67C83.4242 18.538 83.2142 18.424 82.9742 18.328C82.7342 18.232 82.4942 18.136 82.2542 18.04C81.9422 17.932 81.6302 17.812 81.3182 17.68C81.0062 17.536 80.7242 17.368 80.4722 17.176C80.2322 16.972 80.0342 16.738 79.8782 16.474C79.7222 16.21 79.6442 15.892 79.6442 15.52C79.6442 15.172 79.7102 14.848 79.8422 14.548C79.9862 14.236 80.1842 13.972 80.4362 13.756C80.7002 13.528 81.0182 13.354 81.3902 13.234C81.7622 13.102 82.1822 13.036 82.6502 13.036C83.2022 13.036 83.7062 13.132 84.1622 13.324C84.6302 13.516 85.0322 13.75 85.3682 14.026L84.6662 14.962C84.3662 14.734 84.0542 14.548 83.7302 14.404C83.4062 14.26 83.0522 14.188 82.6682 14.188C82.1162 14.188 81.7082 14.314 81.4442 14.566C81.1922 14.818 81.0662 15.112 81.0662 15.448C81.0662 15.652 81.1202 15.832 81.2282 15.988C81.3362 16.132 81.4802 16.264 81.6602 16.384C81.8402 16.492 82.0442 16.594 82.2722 16.69C82.5122 16.774 82.7582 16.864 83.0102 16.96C83.3222 17.08 83.6342 17.206 83.9462 17.338C84.2702 17.47 84.5582 17.638 84.8102 17.842C85.0622 18.034 85.2662 18.274 85.4222 18.562C85.5902 18.85 85.6742 19.198 85.6742 19.606C85.6742 19.966 85.6022 20.302 85.4582 20.614C85.3262 20.926 85.1222 21.202 84.8462 21.442C84.5822 21.682 84.2462 21.868 83.8382 22C83.4422 22.144 82.9862 22.216 82.4702 22.216ZM89.7277 22.216C89.2597 22.216 88.8637 22.144 88.5397 22C88.2277 21.856 87.9697 21.658 87.7657 21.406C87.5737 21.154 87.4357 20.848 87.3517 20.488C87.2677 20.128 87.2257 19.732 87.2257 19.3V14.458H85.9297V13.342L87.2977 13.252L87.4777 10.804H88.7197V13.252H91.0777V14.458H88.7197V19.318C88.7197 19.858 88.8157 20.278 89.0077 20.578C89.2117 20.866 89.5657 21.01 90.0697 21.01C90.2257 21.01 90.3937 20.986 90.5737 20.938C90.7537 20.89 90.9157 20.836 91.0597 20.776L91.3477 21.892C91.1077 21.976 90.8437 22.048 90.5557 22.108C90.2797 22.18 90.0037 22.216 89.7277 22.216ZM94.7659 22.216C94.1419 22.216 93.5479 22.102 92.9839 21.874C92.4199 21.646 91.9279 21.358 91.5079 21.01L92.2459 20.02C92.6299 20.332 93.0199 20.584 93.4159 20.776C93.8239 20.968 94.2919 21.064 94.8199 21.064C95.3959 21.064 95.8279 20.932 96.1159 20.668C96.4039 20.404 96.5479 20.08 96.5479 19.696C96.5479 19.468 96.4879 19.27 96.3679 19.102C96.2479 18.934 96.0919 18.79 95.8999 18.67C95.7199 18.538 95.5099 18.424 95.2699 18.328C95.0299 18.232 94.7899 18.136 94.5499 18.04C94.2379 17.932 93.9259 17.812 93.6139 17.68C93.3019 17.536 93.0199 17.368 92.7679 17.176C92.5279 16.972 92.3299 16.738 92.1739 16.474C92.0179 16.21 91.9399 15.892 91.9399 15.52C91.9399 15.172 92.0059 14.848 92.1379 14.548C92.2819 14.236 92.4799 13.972 92.7319 13.756C92.9959 13.528 93.3139 13.354 93.6859 13.234C94.0579 13.102 94.4779 13.036 94.9459 13.036C95.4979 13.036 96.0019 13.132 96.4579 13.324C96.9259 13.516 97.3279 13.75 97.6639 14.026L96.9619 14.962C96.6619 14.734 96.3499 14.548 96.0259 14.404C95.7019 14.26 95.3479 14.188 94.9639 14.188C94.4119 14.188 94.0039 14.314 93.7399 14.566C93.4879 14.818 93.3619 15.112 93.3619 15.448C93.3619 15.652 93.4159 15.832 93.5239 15.988C93.6319 16.132 93.7759 16.264 93.9559 16.384C94.1359 16.492 94.3399 16.594 94.5679 16.69C94.8079 16.774 95.0539 16.864 95.3059 16.96C95.6179 17.08 95.9299 17.206 96.2419 17.338C96.5659 17.47 96.8539 17.638 97.1059 17.842C97.3579 18.034 97.5619 18.274 97.7179 18.562C97.8859 18.85 97.9699 19.198 97.9699 19.606C97.9699 19.966 97.8979 20.302 97.7539 20.614C97.6219 20.926 97.4179 21.202 97.1419 21.442C96.8779 21.682 96.5419 21.868 96.1339 22C95.7379 22.144 95.2819 22.216 94.7659 22.216Z" fill="#1B1E29"/>
<path d="M18 36L101.5 36.5" stroke="#197E4E" stroke-width="2" stroke-linecap="square"/>
<rect x="53" y="36" width="10" height="10" transform="rotate(-45 53 36)" fill="#197E4E"/>
</svg>

<svg fill="none" height="53" viewBox="0 0 120 53" width="120" xmlns="http://www.w3.org/2000/svg"><rect height="52" rx="7.5" stroke="#c5c5c5" width="119" x=".5" y=".5"/><path d="m25.068 22v-10.548h-3.564v-1.26h8.64v1.26h-3.564v10.548zm8.8651.216c-.54 0-1.056-.102-1.548-.306-.48-.204-.906-.498-1.278-.882-.372-.396-.672-.876-.9-1.44-.216-.576-.324-1.224-.324-1.944 0-.732.108-1.38.324-1.944.228-.576.528-1.062.9-1.458s.798-.696 1.278-.9c.492-.204 1.008-.306 1.548-.306s1.05.102 1.53.306c.492.204.924.504 1.296.9s.666.882.882 1.458c.228.564.342 1.212.342 1.944 0 .72-.114 1.368-.342 1.944-.216.564-.51 1.044-.882 1.44-.372.384-.804.678-1.296.882-.48.204-.99.306-1.53.306zm0-1.224c.372 0 .714-.078 1.026-.234.312-.168.576-.396.792-.684.228-.3.402-.654.522-1.062s.18-.864.18-1.368-.06-.96-.18-1.368c-.12-.42-.294-.78-.522-1.08-.216-.3-.48-.528-.792-.684-.312-.168-.654-.252-1.026-.252s-.714.084-1.026.252c-.312.156-.582.384-.81.684-.216.3-.384.66-.504 1.08-.12.408-.18.864-.18 1.368s.06.96.18 1.368.288.762.504 1.062c.228.288.498.516.81.684.312.156.654.234 1.026.234zm8.409 1.224c-.468 0-.864-.072-1.188-.216-.312-.144-.57-.342-.774-.594-.192-.252-.33-.558-.414-.918s-.126-.756-.126-1.188v-4.842h-1.296v-1.116l1.368-.09.18-2.448h1.242v2.448h2.358v1.206h-2.358v4.86c0 .54.096.96.288 1.26.204.288.558.432 1.062.432.156 0 .324-.024.504-.072s.342-.102.486-.162l.288 1.116c-.24.084-.504.156-.792.216-.276.072-.552.108-.828.108zm4.5573 0c-.732 0-1.344-.216-1.836-.648-.48-.432-.72-1.044-.72-1.836 0-.96.426-1.692 1.278-2.196.852-.516 2.214-.876 4.086-1.08 0-.276-.03-.546-.09-.81-.048-.264-.138-.498-.27-.702s-.318-.366-.558-.486c-.228-.132-.522-.198-.882-.198-.504 0-.978.096-1.422.288s-.84.408-1.188.648l-.576-1.026c.408-.264.906-.516 1.494-.756.588-.252 1.236-.378 1.944-.378 1.068 0 1.842.33 2.322.99.48.648.72 1.518.72 2.61v5.364h-1.224l-.126-1.044h-.054c-.42.348-.87.648-1.35.9-.48.24-.996.36-1.548.36zm.432-1.188c.42 0 .816-.096 1.188-.288.372-.204.768-.498 1.188-.882v-2.43c-.732.096-1.35.21-1.854.342-.492.132-.894.288-1.206.468-.3.18-.522.39-.666.63-.132.228-.198.48-.198.756 0 .504.15.864.45 1.08s.666.324 1.098.324zm7.7883 1.188c-.564 0-.966-.168-1.206-.504s-.36-.828-.36-1.476v-11.052h1.476v11.16c0 .24.042.408.126.504s.18.144.288.144h.126c.048 0 .114-.012.198-.036l.198 1.116c-.096.048-.21.084-.342.108s-.3.036-.504.036zm10.4334 0c-.744 0-1.428-.138-2.052-.414s-1.17-.672-1.638-1.188c-.456-.528-.816-1.17-1.08-1.926-.252-.768-.378-1.632-.378-2.592 0-.948.132-1.8.396-2.556s.63-1.398 1.098-1.926 1.02-.93 1.656-1.206c.636-.288 1.332-.432 2.088-.432.72 0 1.35.15 1.89.45.552.288 1.002.624 1.35 1.008l-.81.972c-.312-.336-.666-.606-1.062-.81s-.846-.306-1.35-.306c-.564 0-1.074.114-1.53.342-.456.216-.846.534-1.17.954-.324.408-.576.906-.756 1.494-.168.588-.252 1.248-.252 1.98 0 .744.084 1.416.252 2.016.18.588.426 1.092.738 1.512s.69.744 1.134.972c.456.228.966.342 1.53.342.576 0 1.08-.114 1.512-.342.432-.24.84-.57 1.224-.99l.828.936c-.468.54-.996.96-1.584 1.26s-1.266.45-2.034.45zm8.6772 0c-.54 0-1.056-.102-1.548-.306-.48-.204-.906-.498-1.278-.882-.372-.396-.672-.876-.9-1.44-.216-.576-.324-1.224-.324-1.944 0-.732.108-1.38.324-1.944.228-.576.528-1.062.9-1.458s.798-.696 1.278-.9c.492-.204 1.008-.306 1.548-.306s1.05.102 1.53.306c.492.204.924.504 1.296.9s.666.882.882 1.458c.228.564.342 1.212.342 1.944 0 .72-.114 1.368-.342 1.944-.216.564-.51 1.044-.882 1.44-.372.384-.804.678-1.296.882-.48.204-.99.306-1.53.306zm0-1.224c.372 0 .714-.078 1.026-.234.312-.168.576-.396.792-.684.228-.3.402-.654.522-1.062s.18-.864.18-1.368-.06-.96-.18-1.368c-.12-.42-.294-.78-.522-1.08-.216-.3-.48-.528-.792-.684-.312-.168-.654-.252-1.026-.252s-.714.084-1.026.252c-.312.156-.582.384-.81.684-.216.3-.384.66-.504 1.08-.12.408-.18.864-.18 1.368s.06.96.18 1.368.288.762.504 1.062c.228.288.498.516.81.684.312.156.654.234 1.026.234zm8.2399 1.224c-.624 0-1.218-.114-1.782-.342s-1.056-.516-1.476-.864l.738-.99c.384.312.774.564 1.17.756.408.192.876.288 1.404.288.576 0 1.008-.132 1.296-.396s.432-.588.432-.972c0-.228-.06-.426-.18-.594s-.276-.312-.468-.432c-.18-.132-.39-.246-.63-.342s-.48-.192-.72-.288c-.312-.108-.624-.228-.936-.36-.312-.144-.594-.312-.846-.504-.24-.204-.438-.438-.594-.702s-.234-.582-.234-.954c0-.348.066-.672.198-.972.144-.312.342-.576.594-.792.264-.228.582-.402.954-.522.372-.132.792-.198 1.26-.198.552 0 1.056.096 1.512.288.468.192.87.426 1.206.702l-.702.936c-.3-.228-.612-.414-.936-.558s-.678-.216-1.062-.216c-.552 0-.96.126-1.224.378-.252.252-.378.546-.378.882 0 .204.054.384.162.54.108.144.252.276.432.396.18.108.384.21.612.306.24.084.486.174.738.27.312.12.624.246.936.378.324.132.612.3.864.504.252.192.456.432.612.72.168.288.252.636.252 1.044 0 .36-.072.696-.216 1.008-.132.312-.336.588-.612.828-.264.24-.6.426-1.008.558-.396.144-.852.216-1.368.216zm7.2575 0c-.468 0-.864-.072-1.188-.216-.312-.144-.57-.342-.774-.594-.192-.252-.33-.558-.414-.918s-.126-.756-.126-1.188v-4.842h-1.296v-1.116l1.368-.09.18-2.448h1.242v2.448h2.358v1.206h-2.358v4.86c0 .54.096.96.288 1.26.204.288.558.432 1.062.432.156 0 .324-.024.504-.072s.342-.102.486-.162l.288 1.116c-.24.084-.504.156-.792.216-.276.072-.552.108-.828.108zm5.0382 0c-.624 0-1.218-.114-1.782-.342s-1.056-.516-1.476-.864l.738-.99c.384.312.774.564 1.17.756.408.192.876.288 1.404.288.576 0 1.008-.132 1.296-.396s.432-.588.432-.972c0-.228-.06-.426-.18-.594s-.276-.312-.468-.432c-.18-.132-.39-.246-.63-.342s-.48-.192-.72-.288c-.312-.108-.624-.228-.936-.36-.312-.144-.594-.312-.846-.504-.24-.204-.438-.438-.594-.702s-.234-.582-.234-.954c0-.348.066-.672.198-.972.144-.312.342-.576.594-.792.264-.228.582-.402.954-.522.372-.132.792-.198 1.26-.198.552 0 1.056.096 1.512.288.468.192.87.426 1.206.702l-.702.936c-.3-.228-.612-.414-.936-.558s-.678-.216-1.062-.216c-.552 0-.96.126-1.224.378-.252.252-.378.546-.378.882 0 .204.054.384.162.54.108.144.252.276.432.396.18.108.384.21.612.306.24.084.486.174.738.27.312.12.624.246.936.378.324.132.612.3.864.504.252.192.456.432.612.72.168.288.252.636.252 1.044 0 .36-.072.696-.216 1.008-.132.312-.336.588-.612.828-.264.24-.6.426-1.008.558-.396.144-.852.216-1.368.216z" fill="#1b1e29"/><path d="m18 36 83.5.5" stroke="#197e4e" stroke-linecap="square" stroke-width="2"/><path d="m53 36h10v10h-10z" fill="#197e4e" transform="matrix(.70710678 -.70710678 .70710678 .70710678 -9.932504 48.020815)"/></svg>
